X:514
T:The stack of barley
T:The little stack of barley
T:Little Mary Cassidy
R:Hornpipe
O:Ireland
D:Kevin Burke: Up Close
B:Roche 2 n201
B:O'Neills 1627
S:My arrangement from various books
Z:Transcription, arrangement, chords:Mike Long
M:4/4
L:1/8
K:G
(gf)|\
"C"efed "G"B2dB|"C"AGEG "D"AcBA|"G"GFGA BA (3(Bcd)|"D"e2~A2 A2(gf)|\
"C"efed "G"BedB|
"C"AGEG "D"AcBA|"G"GFGA "C"(3(Bcd) "D"Ac|"G"B2GG G2:|\
|:GA|\
"Em"BGBd g2fg|"C"agfg e2ef|
"Em"gfed BA (3(Bcd)|"D"e2AA A2(Bd)|\
"C"(3(efg) fa "G"g2fe|"G"dBAG "D"AcBA|"G"GFGA "C"(3(Bcd) "D"Ac|"G"B2GG G2:|
